X: 3
T: Bethena
C: Scott Joplin
%%abc-version 2.0
%%abcx-abcm2ps-target-version 5.9.1 (29 Sep 2008)
%%abc-creator hum2abc beta
%%abcx-conversion-date 2021/07/20 09:00:57
%%abc-copyright 2021 Craig Stuart Sapp
%%abc-edited-by Craig Stuart Sapp
%%abc-edited-by Craig Stuart Sapp
%%abcx-initial-encoding-date 2004/11/28
%%humdrum-veritas 2088465685
%%humdrum-veritas-data 1204213189
%%removed 0's from note length
%%linebreak <none>
%%barnumbers 0
L: 1/4
M: 3/4
N: Derived from bethena.krn
Q: "Valse Tempo" 1/4=144
%%staves {1 2}
V: 1 clef=treble
V: 2 clef=bass
K: G
[V:1] a/gb/a | 
[V:2] z3 | 
[V:1] A/GB/A | 
[V:2] z3 | 
[V:1] z3 | 
[V:2] A,/G,B,/A, | 
[V:1] z3 | 
[V:2] A,,/G,,B,,/A,, | 
[V:1] [E3C3G,3] | 
[V:2] A,,/G,,B,,/A,, | 
[V:1] [_E3C3G,3] | 
[V:2] A,,/C,B,,/A,, | 
[V:1] [D3C3F,3] | 
[V:2] D,3 | 
[V:1] [A3F3C3] ||  
[V:2] [D,3D,,3] ||  
[V:1] A/GB/A & [D3B,3] | 
[V:2] G,,[G,D,][G,D,] | 
[V:1] A/GB/A & [G3^C3] | 
[V:2] [E,E,,][A,G,E,][A,G,E,] | 
[V:1] A/cB/A & [F2=C2][FC] | 
[V:2] z[A,F,]z & [D,2D,,2][^D,^D,,] | 
[V:1] G3 & [E3B,3] | 
[V:2] [E,E,,][G,E,][G,E,] | 
[V:1] e/ae/g & c2c | 
[V:2] [C,C,,][CG,E,][CG,E,] | 
[V:1] B/eB/d & G2[BG] | 
[V:2] [D,D,,][B,G,D,][B,G,D,] | 
[V:1] G/BG/B & ^C2[GC] | 
[V:2] [A,,A,,,][A,G,E,][A,,A,,,] | 
[V:1] A3 & [F3=C3] | 
[V:2] z[A,F,D,][A,F,D,] & [D,3D,,3] | 
[V:1] A/GB/A & [D3B,3] | 
[V:2] G,,[G,D,][G,D,] | 
[V:1] A/GB/A & [G3^C3] | 
[V:2] [E,E,,][A,G,E,][A,G,E,] | 
[V:1] A/cB/A & [F2=C2][FC] | 
[V:2] z[A,F,]z & [D,2D,,2][^D,^D,,] | 
[V:1] G3 & [E3B,3] | 
[V:2] [E,E,,][G,E,][G,E,] | 
[V:1] e/ae/g & c2c | 
[V:2] [C,C,,][CG,E,][CG,E,] | 
[V:1] B/eB/ d/D/ & G2z | 
[V:2] [D,D,,][B,G,D,][B,G,D,] | 
[V:1] ^C/[BG]=C/[AF] & ^C>=CC | 
[V:2] [E,E,,][A,,A,,,][D,D,,] | 
[V:1] G2B & [D3B,3] ||  
[V:2] [G,3G,,3] ||  
[V:1] B!tenuto!A2 & [^D3B,3] | 
[V:2] [^F,2^F,,2][=F,=F,,] | 
[V:1] !tenuto![G3^C3] & _B,2A, | 
[V:2] [E,2E,,2][_E,_E,,] | 
[V:1] F!tenuto!=F2 & D2_E | 
[V:2] [D,2D,,2][C,C,,] | 
[V:1] !tenuto!!arpeggio!=f3 & !arpeggio![_E3A3c3] ]|:  
[V:2] !tenuto![=F,,3=F,,,3] ]|:  
[V:1]  [K:Bb] [d/B/D/][gG][f/F/] [g/G/][a/A/] | 
[V:2]  [K:Bb] [B,,B,,,][D/B,/F,/][F,/F,,/] [=E,/=E,,/][_E,/_E,,/] | 
[V:1] [b3B3] & z[fd][fd] | 
[V:2] [D,D,,][DB,F,][DB,F,] | 
[V:1] [d'/d/][c'c][f'/f/] [=e'/=e/][_e'/_e/] | 
[V:2] [F,F,,][E/A,/F,/][F,/F,,/] [G,/G,,/][A,/A,,/] | 
[V:1] [d'3d3] & z[bf][bf] | 
[V:2] [B,B,,][DB,F,][DB,F,] | 
[V:1] [b/B/][ge][b/B/][g^cB] | 
[V:2] [E,E,,][EB,G,][=E,=E,,] | 
[V:1] [g/d/B/][fdB][g/d/B/][d=BF] | 
[V:2] [F,F,,][DB,F,][G,G,,] | 
[V:1] d/Bd/c & [_B2=E2][B_E] | 
[V:2] [C,C,,][G,G,,][_G,_G,,] | 
[V:1] c3 & [A3E3] | 
[V:2] [F,F,,][CA,][CA,] | 
[V:1] [d/B/D/][gG][f/F/] [g/G/][a/A/] | 
[V:2] [B,,B,,,][D/B,/F,/][F,/F,,/] [=E,/=E,,/][_E,/_E,,/] | 
[V:1] [b3B3] & z[fd][fd] | 
[V:2] [D,D,,][DB,F,][DB,F,] | 
[V:1] [d'/d/][c'c][f'/f/] [=e'/=e/][_e'/_e/] | 
[V:2] [F,F,,][E/A,/F,/][F,/F,,/] [G,/G,,/][A,/A,,/] | 
[V:1] [d'3d3] & z[bf][bf] | 
[V:2] [B,B,,][DB,F,][DB,F,] | 
[V:1] [b/B/][ge][b/B/][g^cB] | 
[V:2] [E,E,,][EB,G,][=E,=E,,] | 
[V:1] [g/d/B/][fdB][g/d/B/][d=BF] | 
[V:2] [F,F,,][DB,F,][G,G,,] | 
[V:1] d/Bd/c & [_B2=E2][A_E] |[1 
[V:2] [C,C,,][CB,G,][F,F,,] | 
[V:1] [BFD]F/B/c/^c/ :|][2 
[V:2] [B,B,,]zz :|]  
[V:1] [BFD]A/_A/G | 
[V:2] [B,B,,]A,/_A,/G, | 
[V:1] _G/F=E/_E | 
[V:2] _G,/F,=E,/_E, | 
[V:1] Ddd & x[_BG][A^F] | 
[V:2] D,xx | 
[V:1] d^c=c & [_A=F][G=E][_G_E] | 
[V:2] x3 | 
[V:1] [=B^G=FD][BGFD][BGFD] | 
[V:2] [D,D,,][D,D,,][D,D,,] | 
[V:1] [_B2=G2^C2][AG=C] | 
[V:2] [=E,2=E,,2][_E,_E,,] | 
[V:1] [A3^F3C3]- | 
[V:2] [D,2D,,2]A,, | 
[V:1] !tenuto![A3F3C3] ||  
[V:2] !tenuto!D,,3 ||  
[V:1]  [K:G] A/GB/A & [D3B,3] | 
[V:2]  [K:G] G,,[G,D,][G,D,] | 
[V:1] A/GB/A & [G3^C3] | 
[V:2] [E,E,,][A,G,E,][A,G,E,] | 
[V:1] A/cB/A & [F2=C2][FC] | 
[V:2] z[A,F,]z & [D,2D,,2][^D,^D,,] | 
[V:1] G3 & [E3B,3] | 
[V:2] [E,E,,][G,E,][G,E,] | 
[V:1] e/ae/g & c2c | 
[V:2] [C,C,,][CG,E,][CG,E,] | 
[V:1] B/eB/d & G2[BG] | 
[V:2] [D,D,,][B,G,D,][B,G,D,] | 
[V:1] G/BG/B & ^C2[GC] | 
[V:2] [A,,A,,,][A,G,E,][A,,A,,,] | 
[V:1] [A3F3] & =C3 | 
[V:2] z[A,F,D,][A,F,D,] & [D,3D,,3] | 
[V:1] A/GB/A & [D3B,3] | 
[V:2] G,,[G,D,][G,D,] | 
[V:1] A/GB/A & [G3^C3] | 
[V:2] [E,E,,][A,G,E,][A,G,E,] | 
[V:1] A/cB/A & [F2=C2][FC] | 
[V:2] z[A,F,]z & [D,2D,,2][^D,^D,,] | 
[V:1] G3 & [B,3E3] | 
[V:2] [E,E,,][G,E,][G,E,] | 
[V:1] e/ae/g & c2c | 
[V:2] [C,C,,][CG,E,][CG,E,] | 
[V:1] B/eB/ d/D/ & G2z | 
[V:2] [D,D,,][B,G,D,][B,G,D,] | 
[V:1] ^C/[BG]=C/[AF] & ^C>=CC | 
[V:2] [E,E,,][A,,A,,,][D,D,,] | 
[V:1] [G3D3B,3] ||  
[V:2] [G,G,,]D,G,, ||  
[V:1] zg/d'/c'/b/ & G3 | 
[V:2] !tenuto![D3B,3=F,3] | 
[V:1] ze/b/a/^g/ & ^G3 | 
[V:2] !tenuto![D3B,3E,3] | 
[V:1] z^d/^g/^a/b/ & ^G3 | 
[V:2] !tenuto![^D3B,3^D,3] | 
[V:1] ze/b/a/^g/ & [^G3E3] | 
[V:2] !tenuto![B,3=D,3] | 
[V:1] z^c/^g/^f/^e/ & [^G3^E3] | 
[V:2] !tenuto![B,3^C,3] | 
[V:1] z=c/=f/g/_a/ & [_A3=F3] | 
[V:2] !tenuto![=C3=C,3] | 
[V:1] [_A=F_D][AF=D][=AFD] | 
[V:2] _C,_B,,A,,/D,/ | 
[V:1] !tenuto!_B3 & [=FD][E2C2] ]|:  
[V:2] G,,C,2 ]|:  
[V:1]  [K:F] [AFC][BEC][=BFD] | 
[V:2]  [K:F] [F,F,,][G,G,,][^G,^G,,] | 
[V:1] c/[af]c/[af] | 
[V:2] [A,A,,][FCA,][FCA,] | 
[V:1] B/[ge]B/[geB] | 
[V:2] z[ECB,]z & [C,2C,,2][^C,^C,,] | 
[V:1] [f2d2A2][aA] | 
[V:2] z[FDA,][FDA,] & [D,3D,,3] | 
[V:1] [a/^d/c/A/][adcA][f/d/c/A/][fdcA] | 
[V:2] [F,F,,][^DCA,][DCA,] | 
[V:1] [a/e/c/A/][aecA][e/c/A/][ecA] | 
[V:2] [E,E,,][ECA,][ECA,] | 
[V:1] [e/^G/][eG][e/G/][eG] | 
[V:2] [E,E,,][ED^G,][EDG,] | 
[V:1] AcB | 
[V:2] [E2C2A,2][EC=G,] | 
[V:1] [AFC][BEC][=BFD] | 
[V:2] [F,F,,][G,G,,][^G,^G,,] | 
[V:1] c/[af]c/[af] | 
[V:2] [A,A,,][FCA,][FCA,] | 
[V:1] B/[ge]B/[geB] |[1 
[V:2] z[ECB,]z & [C,2C,,2][^C,^C,,] | 
[V:1] [f2d2A2]a/=b/ | 
[V:2] z[FDA,]z & [D,3D,,3] | 
[V:1] c'/ac'/a & ^d3 | 
[V:2] z[^DCA,][DCA,] & [^F,3^F,,3] | 
[V:1] c'/gc'/g & e3 | 
[V:2] z[ECG,][ECG,] & [G,3G,,3] | 
[V:1] g/gg/g & [f2=B2][fB] | 
[V:2] [G,G,,][F=B,G,][FB,G,] | 
[V:1] [c'/e/c/]_b/g/e/c/B/ :|][2 
[V:2] [C,C,,][E2C2_B,2G,2] :|]  
[V:1] [f2d2A2]d/e/ | 
[V:2] z[FDA,]z & [D,3D,,3] | 
[V:1] [f/F/][dB][f/F/][d^GF] | 
[V:2] z[DB,F,]z & [B,,2B,,,2][=B,,=B,,,] | 
[V:1] [d/A/F/][cAF][d/A/F/][A^FC] | 
[V:2] z[CA,F,]z & [C,2C,,2][D,D,,] | 
[V:1] A/FA/G & [=F2=B,2][E_B,] | 
[V:2] z[G,F,D,]z & [G,,2G,,,2][C,C,,] | 
[V:1] FF/f/f ||  
[V:2] [CA,][_DB,][CA,] & [F,3F,,3] ||  
[V:1] f/e/f/e/_e/d/ | 
[V:2] !tenuto![D3=B,3^G,3] | 
[V:1] =e/^d/e/d/=d/_d/ | 
[V:2] !tenuto![_D3_B,3=G,3] | 
[V:1] _e/d/e/d/_d/c/ | 
[V:2] !tenuto![C3A,3^F,3] | 
[V:1] ^c2!fermata!z ]|:  
[V:2] ^A,2!fermata!z & ^F,^F,,x ]|:  
[V:1]  [K:D] d/Bf/d | 
[V:2]  [K:D] [B,,B,,,][DB,F,][DB,F,] | 
[V:1] b/f/d/B/-B | 
[V:2] [B,,B,,,][DB,F,][DB,F,] | 
[V:1] ^A/fg/f | 
[V:2] [F,,F,,,][E^A,F,][EA,F,] | 
[V:1] B/fg/f | 
[V:2] [B,,B,,,][DB,F,][DB,F,] | 
[V:1] d/Bf/d | 
[V:2] [B,,B,,,][DB,F,][DB,F,] | 
[V:1] b/f/d/B/- B/d/ | 
[V:2] [B,,B,,,][DB,F,][DB,F,] | 
[V:1] [d/B/][dB][d/B/] [e/c/B/][^e/c/B/] | 
[V:2] [G,G,,][G,G,,][G,G,,] | 
[V:1] [fc^A]!accent!C{/^E,}!accent!F, | 
[V:2] [F,F,,]!accent!C,{/^E,,}!accent!F,, | 
[V:1] d/Bf/d | 
[V:2] [B,,B,,,][DB,F,][DB,F,] | 
[V:1] b/f/d/B/-B | 
[V:2] [B,,B,,,][DB,F,][DB,F,] | 
[V:1] ^A/fg/f | 
[V:2] [F,,F,,,][E^A,F,][EA,F,] | 
[V:1] B/fg/ f/b/ | 
[V:2] [B,,B,,,][DB,F,][DB,F,] | 
[V:1] b/ga/ g/f/ | 
[V:2] [E,E,,][EB,G,][EB,G,] | 
[V:1] f/de/ d/c/ | 
[V:2] [B,,B,,,][DB,F,][DB,F,] | 
[V:1] c/^Ag/f |[1 
[V:2] [F,,F,,,][E^A,F,][EA,F,] | 
[V:1] B!accent!G!accent!F :|][2 
[V:2] [DB,]!accent![G,G,,]!accent![F,F,,] :|]  
[V:1] B[d^G^ED][=cAFD] ]|: 
[V:2] [DB,][B,B,,][A,A,,] ]|:  
[V:1] B/dB/d & [B2G2D2][^GD] | 
[V:2] [G,G,,][E,E,,][^E,^E,,] | 
[V:1] A>Ad/f/ & D>zz | 
[V:2] [F,F,,][A,F,][A,F,] | 
[V:1] a/gg/ f/e/ & [c3A3] | 
[V:2] [A,,A,,,][CA,G,][CA,G,] | 
[V:1] [f/d/A/]d/A[=cFD] | 
[V:2] [D,D,,][DA,F,][A,A,,] | 
[V:1] B/dB/d & [B2G2D2][^GD] | 
[V:2] [G,G,,][E,E,,][E,^E,,] | 
[V:1] A2d & D3 | 
[V:2] z[A,F,][A,F,] & [F,3F,,3] | 
[V:1] c/^B/c/B/c/f/ | 
[V:2] [E2^A,2G,2][EA,F,] | 
[V:1] B[d^G^ED][=cAFD] | 
[V:2] [DB,][B,B,,][A,A,,] | 
[V:1] B/dB/d & [B2G2D2][^GD] | 
[V:2] [G,G,,][E,E,,][^E,^E,,] | 
[V:1] A>Ad/f/ & D>zz | 
[V:2] [F,F,,][A,F,][A,F,] | 
[V:1] a/gg/ f/e/ & [c3A3] | 
[V:2] [A,,A,,,][CA,G,][CA,G,] | 
[V:1] f>df/a/ & [d2A2]d | 
[V:2] [D,D,,][DA,F,][A,A,,] | 
[V:1] b/d'd'/e' & [g2d2]g | 
[V:2] [G,G,,][B,B,,][_B,_B,,] | 
[V:1] d'/a<ff/ & f2z |[1 
[V:2] [A,A,,][DA,F,][DA,F,] | 
[V:1] a/gg/ f/e/ & [c2A2][c/A/][c/G/] | 
[V:2] [A,,A,,,][CA,G,][CA,G,] | 
[V:1] [d2A2F2][=cFD] :|][2 
[V:2] [D,D,,][DA,F,][A,A,,] :|]  
[V:1] a/ge/c & [c2A2][GE] | 
[V:2] A,,A,_B, | 
[V:1] !tenuto![=c3^F3^D3] | 
[V:2] A,/^G,/A,/G,/=G,/F,/ | 
[V:1] !tenuto![B3=F3=D3] | 
[V:2] ^G,/^^F,/G,/F,/^F,/=F,/ | 
[V:1] !tenuto![_B3E3^C3] | 
[V:2] =G,/^F,/G,/F,/=F,/E,/ | 
[V:1] [_BG^C]!tenuto![A2G2=C2] | 
[V:2] [E,E,,]!tenuto![_E,2_E,,2] | 
[V:1] !tenuto![A3F3=C3] || 
[V:2] !tenuto![D,3D,,3] ||  
[V:1]  [K:G] A/GB/A & [D3B,3] | 
[V:2]  [K:G] G,,[G,D,][G,D,] | 
[V:1] A/GB/A & [G3^C3] | 
[V:2] [E,E,,][A,G,E,][A,G,E,] | 
[V:1] A/cB/A & [F2=C2][FC] | 
[V:2] z[A,F,]z & [D,2D,,2][^D,^D,,] | 
[V:1] G3 & [E3B,3] | 
[V:2] [E,E,,][G,E,][G,E,] | 
[V:1] e/ae/g & c2c | 
[V:2] [C,C,,][CG,E,][CG,E,] | 
[V:1] B/eB/d & G2[BG] | 
[V:2] [D,D,,][B,G,D,][B,G,D,] | 
[V:1] G/BG/B & ^C2[GC] | 
[V:2] [A,,A,,,][A,G,E,][A,,A,,,] | 
[V:1] [A3F3] & =C3 | 
[V:2] z[A,F,D,][A,F,D,] & [D,3D,,3] | 
[V:1] A/GB/A & [D3B,3] | 
[V:2] G,,[G,D,][G,D,] | 
[V:1] A/GB/A & [G3^C3] | 
[V:2] [E,E,,][A,G,E,][A,G,E,] | 
[V:1] A/cB/A & [F2=C2][FC] | 
[V:2] z[A,F,]z & [D,2D,,2][^D,^D,,] | 
[V:1] G3 & [E3B,3] | 
[V:2] [E,E,,][G,E,][G,E,] | 
[V:1] e/ae/g & c2c | 
[V:2] [C,C,,][CG,E,][CG,E,] | 
[V:1] B/eB/ d/D/ & G2z | 
[V:2] [D,D,,][B,G,D,][B,G,D,] | 
[V:1] ^C/[BG]=C/!fermata![AF] & ^C>=C!fermata!C | 
[V:2] [E,E,,][A,,A,,,]!fermata![D,D,,] | 
[V:1] A/GB/A & B,C2 | 
[V:2] D,E,_E, & G,,3 | 
[V:1] Gga & B,zz | 
[V:2] D,zz & G,,xx | 
[V:1] a/gb/a & Bc2 | 
[V:2] DE_E & G,3 | 
[V:1] gg'g' & Bzz | 
[V:2] Dzz & G,xx | 
[V:1] a/gb/a & [d3B3G3] | 
[V:2] x3 | 
[V:1] A/GB/A | 
[V:2] [D3B,3G,3] | 
[V:1] A,/G,B,/A, | 
[V:2] [D,3B,,3G,,3] | 
[V:1] G,!fermata![G2_E2_B,2G,2] | 
[V:2] [D,B,,G,,]!fermata![_E,,2_E,,,2] | 
[V:1] [G3D3=B,3G,3] |]  
[V:2] [G,,3G,,,3] |]  


